X:1
T:Title
%%score { 1 | ( 2 3 ) }
L:1/8
M:6/8
K:A
V:1 treble nm="Grand Piano"
V:2 bass 
V:3 bass 
V:1
 z3 z2[Q:1/4=100] [CE] | [CA]2 [CA] [CA][EG][DF] | [CE]3 [CA]2 [CA] | [Ec]2 [Ec] c2 B | %4
[M:5/8] [CA]-[CA]- [CA]3 |[M:1/8] [CE] |[M:3/4] [CA]2 [CA][CA] [EG][DF] | [CE]3 [CA]2 [CA] | %8
 [Ec]2 [Ec] [Ec]2 [DB] |[M:5/8] [CA]-[CA]- [CA]3 |[M:1/8] c |[M:3/4] e2 ee dc | [Fd]3 [Fd]2 [Fd] | %13
 c2 B [EA]2 [Ec] |[M:5/8] B-B- B3 |[M:1/8] c |[M:3/4] e2 ee dc | [Fd]3 [Fd]2 [Fd] | %18
 [Ec]2 [DFB] [CEA]2 [B,EG] |[M:5/8] [CEA]-[CEA]- [CEA]3 |] %20
V:2
 z3 z2 [A,,A,] | [A,,E,]2 [A,,E,] [A,,A,]2 [A,,A,] | [A,,A,]3 [A,,E,]2 [A,,E,] | %3
 [A,,A,]2 [C,A,] [E,A,E]2 [E,D] |[M:5/8] [A,,A,]-[A,,A,]- [A,,A,]3 |[M:1/8] [A,,A,] | %6
[M:3/4] [A,,E,]2 [A,,E,] [A,,A,]2 [A,,A,] | [A,,A,]3 [A,,E,]2 [A,,E,] | %8
 [A,,A,]2 [C,A,] [E,A,]2 [E,G,] |[M:5/8] [A,,A,]-[A,,A,]- [A,,A,]3 |[M:1/8] [A,E] | %11
[M:3/4] z2 z C z2 | [D,A,]3 [D,A,]2 [D,A,] | [A,E]2 [E,G,E] [C,A,]2 [A,,A,] | %14
[M:5/8] [E,G,E]-[E,G,E]- [E,G,E]3 |[M:1/8] [A,E] |[M:3/4] z2 z C z2 | [D,A,]3 [D,A,]2 [D,A,] | %18
 A,2 D, E,2 E, |[M:5/8] A,,-A,,- A,,3 |] %20
V:3
 x6 | x6 | x6 | x6 |[M:5/8] x5 |[M:1/8] x |[M:3/4] x6 | x6 | x6 |[M:5/8] x5 |[M:1/8] x | %11
[M:3/4] [A,CE]2 [A,CE][A,E]- [A,B,E][A,E] | x6 | x6 |[M:5/8] x5 |[M:1/8] x | %16
[M:3/4] [A,CE]2 [A,CE][A,E]- [A,B,E][A,E] | x6 | x6 |[M:5/8] x5 |] %20

